!!!SOCIAL_FUNCTION:	miscellaneous songs
!!!PDT:	1956
!!!OTL: No_242_Song_of_Friendship_(c).krn
!!!LANG: Non-Tone
!!!LING_GROUP: Muskogean
!!!REG: Florida
**kern
*staff1
=1-
*clefF4
*k[f#c#]
*M2/4
16D\LK
8.D\J
4A\
=2||
*M5/4
2.A\
4F#\
4r
=3||
*M2/4
16A\LK
8.A\J
4F#\
=4||
*M5/4
[2F#\
8F#\L]
16E\L
16D\JJ
2D\
=5||
*M2/4
16F#\LK
8.E\J
4D\
=6||
*M3/4
[4D\
8.D/L]
16BB/Jk
4BB/
=7||
*M2/4
16D\LK
8.D\J
4BB/
=8||
*M5/4
[2D\
8.D/L]
16BB/Jk
4D\
4r
==
*-
